assets/images/twitter.svg

<?xml version="1.0" encoding="UTF-8" standalone="no"?>
<!DOCTYPE svg PUBLIC "-//W3C//DTD SVG 1.1//EN" "http://www.w3.org/Graphics/SVG/1.1/DTD/svg11.dtd">
<svg width="100%" height="100%" viewBox="0 0 92 75" version="1.1" xmlns="http://www.w3.org/2000/svg" xmlns:xlink="http://www.w3.org/1999/xlink" xml:space="preserve" xmlns:serif="http://www.serif.com/" style="fill-rule:evenodd;clip-rule:evenodd;stroke-linejoin:round;stroke-miterlimit:2;">
    <path id="All_glyphs" d="M92,8.85C88.558,10.388 84.903,11.399 81.16,11.85C85.103,9.496 88.055,5.782 89.46,1.41C85.753,3.609 81.698,5.161 77.47,6C73.902,2.215 68.925,0.067 63.724,0.067C53.361,0.067 44.834,8.594 44.834,18.957C44.834,20.375 44.994,21.788 45.31,23.17C30.137,22.415 15.98,15.24 6.4,3.45C1.426,12.028 4,23.135 12.24,28.65C9.245,28.564 6.315,27.754 3.7,26.29C3.695,26.37 3.695,26.45 3.7,26.53C3.72,35.464 10.075,43.222 18.83,45C16.052,45.754 13.137,45.864 10.31,45.32C12.762,53.004 19.876,58.31 27.94,58.47C21.256,63.716 12.997,66.563 4.5,66.55C2.996,66.551 1.493,66.461 0,66.28C8.626,71.831 18.672,74.779 28.93,74.77C63.65,74.77 82.64,46 82.64,21.06C82.64,20.25 82.64,19.43 82.58,18.62C86.278,15.951 89.468,12.642 92,8.85Z" style="fill:rgb(102,109,137);fill-rule:nonzero;"/>
</svg>

<svg xmlns="http://www.w3.org/2000/svg" viewBox="0 0 92 74.77"><title>Ресурс 1</title><g id="Слой_2" data-name="Слой 2"><g id="All_glyphs" data-name="All glyphs"><path d="M92,8.85a37.59,37.59,0,0,1-10.84,3,18.89,18.89,0,0,0,8.3-10.44A38,38,0,0,1,77.47,6,18.89,18.89,0,0,0,45.31,23.17,53.57,53.57,0,0,1,6.4,3.45a18.91,18.91,0,0,0,5.84,25.2A18.58,18.58,0,0,1,3.7,26.29a1.93,1.93,0,0,0,0,.24A18.89,18.89,0,0,0,18.83,45a18.9,18.9,0,0,1-8.52.32A18.9,18.9,0,0,0,27.94,58.47,37.87,37.87,0,0,1,4.5,66.55,37.24,37.24,0,0,1,0,66.28a53.37,53.37,0,0,0,28.93,8.49c34.72,0,53.71-28.77,53.71-53.71,0-.81,0-1.63-.06-2.44A38.22,38.22,0,0,0,92,8.85Z"/></g></g></svg>
